X: 19066
T: Iris
R: waltz
M: 3/4
K: Eminor
|:G3 A FG|E2 EG Be|cBAG FG|AD de BA|BE ED EF|
G4 Bd|1 dcBA FA|B6:|2 F2 E2 D2|E6|
|:eg Bd AB|G2 EF GE|Ac cA ce|fe BG FE|C3 GFD|
E2 EG FE|FD BA FG|1 EF GA Bd:|2 E6||

